X: 260
T:Rosie's Reel
C:Kevin Crawford
D:Lnasa Otherworld
N:Played on Low F whistle on the recording
R:reel
M:C|
Z: Spencer Nitchie
K:G
FBBA BBdA|FAAF ABFE|FBBA BBAB|def/2e/2d eeeg|
fBBA B2 dA|FAAF ABFE|FBBB dBfd|1 cAec dBBA:|
|2 cAec dBBA|:fBBB g4-|gffe edcB|A2 AA EAce|
aefa fece|fBBB gfeg|fBBB dcBc|ABc/2B/2A EAce|
aece fBBB||fBBB geag|fBBB dBec|A2 AA EAce|
aefa fece|fBBB bafe|fBBB dcBc|a4 afec|
ddBA BAFE|

